X:1
T:Bloomdido
C:1950 - Charlie Parker
Z:Copyright © www.realbook.site
L:1/8
M:4/4
I:linebreak $
K:Bb
V:1 treble nm=" " snm=" "
V:1
|:"Bb6" BcBG z2 z B |"Eb7" d2 fc z F z d |"Bbmaj7" BcBG edB_A |"Bb7" z g z f c_A^FG |$ %4
"Eb7" =feBG B2 z !slide!_d- |"Ebm7" d2 B_G cBGF- |"Bbmaj7" F z2 B A2 z c | %7
"Dbm7" _g_f (3_c_Ae-"Gb7" e z2 _d |$"Cm7" =c=G z =A cBAG |"F7" ^FBcd eBde | %10
 (3d/e/"Bb6"d/B eB de (3d/e/d/B | e2 z2 z4 :| %12

